assets/icons/uE008-check.svg

<svg xmlns="http://www.w3.org/2000/svg" width="896" height="1232" viewBox="0 0 896 1232"><path d="M895 174q5 23-11 42L465 762q-16 22-44 22-19 0-32-10L192 639q-19-14-23-36.5t9-41.5l67-98q13-19 36-24 2 0 5.5-.5t5.5-.5q16 0 31 10l57 40L699 78q16-22 44-22 19 0 33 11l97 69q19 14 22 38zM421 728l419-546-97-70-351 452-100-70-68 99zm195 168V656l56-72v312q0 23-16.5 39.5T616 952H56q-23 0-39.5-16.5T0 896V336q0-23 16.5-39.5T56 280h414l-44 56H56v560h560zM364 420H140v392h392v-46l28-37v111H112V392h273z"/></svg>

<?xml version="1.0" encoding="UTF-8" standalone="no"?><svg   xmlns:svg="http://www.w3.org/2000/svg"   xmlns="http://www.w3.org/2000/svg"   version="1.1"   width="896"   height="1232"   viewBox="0 0 896 1232">  <path     d="M895 174Q900 197 884 216L465 762Q449 784 421 784Q402 784 389 774L192 639Q173 625 169 602.5T178 561L245 463Q258 444 281 439Q283 439 286.5 438.5T292 438Q308 438 323 448L380 488L699 78Q715 56 743 56Q762 56 776 67L873 136Q892 150 895 174zM421 728L840 182L743 112L392 564L292 494L224 593zM616 896V656L672 584V896Q672 919 655.5 935.5T616 952H56Q33 952 16.5 935.5T0 896V336Q0 313 16.5 296.5T56 280H470L426 336H56V896H616zM364 420H140V812H532V766L560 729V840H112V392H385z"     id="icon70" /></svg>
